!!!!SEGMENT: pl-sa--78-a-ii-18--003_kraus-lambert--requiem-ex-dis-dies-irae.krn
!!!cenid: 17xx:1683
!!!COM: Kraus, Lambert
!!!COM-rismID: pe30001779
!!!CDT: 1728-1790
!!!CNT:
!!!OPR: Requiem ex Dis
!!!OTL: Dies irae
!!!OMV: 003
!!!PDT:
!!!AGN: Sacred; Requiem
!!!SMS-siglum: PL-SA
!!!SMS-shelfmark: 78/A II 18
!!!SMS-shelfwork: 001-003 M
!!!SMS-variant:
!!!SMS-altvar:
!!!NIFC-rismSourceID: 1001070176
!!!NIFC-islandoraID:
!!!URL-pdf-islandora:
!!!URL-scan: https://bc.bdsandomierz.pl/dlibra/publication/1355/edition/1323/content @EN{Scan in the Sandomierz Diocese Digital Library} @PL{Skany w portalu Cyfrowa Biblioteka Diecezjalna w Sandomierzu}
!!!ONB-nifc: UWAGA: części Requiem: 1. Requiem, 2. Kyrie, 3. Dies irae, 4. Responde mihi, 5. Sanctus, 6. Benedictus, 7. Agnus Dei, 8. Lux aeterna
!!!AIN: 1 alto 1 bass 2 cor 1 organ 1 soprn 1 tenor 2 violn
!!!key: E-
**kern	**kern	**dynam	**kern	**dynam	**kern	**text	**kern	**text	**kern	**text	**kern	**text	**kern	**kern
*	*group3	*	*group3	*	*group2	*	*group2	*	*group2	*	*group2	*	*group1	*group1
*part9	*part8	*part8	*part7	*part7	*part6	*part6	*part5	*part5	*part4	*part4	*part3	*part3	*part2	*part1
*staff9	*staff8	*	*staff7	*	*staff6	*staff6	*staff5	*staff5	*staff4	*staff4	*staff3	*staff3	*staff2	*staff1
*>[A,B,C,D,C]	*>[A,B,C,D,C]	*>[A,B,C,D,C]	*>[A,B,C,D,C]	*>[A,B,C,D,C]	*>[A,B,C,D,C]	*>[A,B,C,D,C]	*>[A,B,C,D,C]	*>[A,B,C,D,C]	*>[A,B,C,D,C]	*>[A,B,C,D,C]	*>[A,B,C,D,C]	*>[A,B,C,D,C]	*>[A,B,C,D,C]	*>[A,B,C,D,C]
*>A	*>A	*>A	*>A	*>A	*>A	*>A	*>A	*>A	*>A	*>A	*>A	*>A	*>A	*>A
*I"Organo	*I"Violino 2do	*	*I"Violino 1mo	*	*I"Baſso	*	*I"Tenore	*	*I"Alto	*	*I"Canto	*	*I"Cornu 2do ex Dis	*I"Cornu 1mo ex Dis
*I'org	*I'vl 2	*	*I'vl 1	*	*I'B	*	*I'T	*	*I'A	*	*I'S	*	*I'cor 2 in Dis	*I'cor 1 in Dis
*Iorgan	*Ivioln	*	*Ivioln	*	*Ibass	*	*Itenor	*	*Ialto	*	*Isoprn	*	*Icor	*Icor
*ICklav	*ICstr	*	*ICstr	*	*ICvox	*	*ICvox	*	*ICvox	*	*ICvox	*	*ICbras	*ICbras
*clefF4	*clefG2	*	*clefG2	*	*clefF4	*	*clefC4	*	*clefC3	*	*clefC1	*	*clefG2	*clefG2
*	*	*	*	*	*	*	*	*	*	*	*	*	*ITrd-2c-3	*ITrd-2c-3
*k[a-e-b-]	*k[e-b-a-]	*	*k[e-b-a-]	*	*k[b-e-]	*	*k[a-b-e-]	*	*k[a-b-e-]	*	*k[a-b-e-]	*	*k[b-e-a-]	*k[b-e-a-]
*E-:	*E-:	*	*E-:	*	*E-:	*	*E-:	*	*E-:	*	*E-:	*	*E-:	*E-:
*M4/4	*M4/4	*	*M4/4	*	*M4/4	*	*M4/4	*	*M4/4	*	*M4/4	*	*M4/4	*M4/4
*met(c)	*met(c)	*	*met(c)	*	*met(c)	*	*met(c)	*	*met(c)	*	*met(c)	*	*met(c)	*met(c)
=1	=1	=1	=1	=1	=1	=1	=1	=1	=1	=1	=1	=1	=1	=1
*	*^	*	*	*	*	*	*	*	*	*	*	*	*	*
!	!	!	!	!	!	!	!	!	!	!	!	!LO:TX:b:i:t=Baſso	!	!	!LO:TX:b:i:t=Baſso
!LO:TX:a:i:t=Recitativo	!	!	!	!LO:TX:a:i:t=Recitativo	!	!LO:TX:a:i:t=Recitativo	!	!	!	!LO:TX:b:t=Judex ergo	!	!LO:TX:a:t=7	!	!LO:TX:a:i:t=Recitativo	!LO:TX:a:i:t=Recitativo
8E-\L	8g/L	8g\L	.	8ee-\L	.	2r	.	00r	.	00r	.	00r	.	00r	00r
8E-\	8g/	8g\	.	8ee-\	.	.	.	.	.	.	.	.	.	.	.
8E-\	8b-/	8g\	.	8ee-\	.	.	.	.	.	.	.	.	.	.	.
8E-\J	8b-/J	8g\J	.	8ee-\J	.	.	.	.	.	.	.	.	.	.	.
4E-\	4b-/	4g\	.	4ee-\	.	4r	.	.	.	.	.	.	.	.	.
4r	4r	4ryy	.	4r	.	8B-\	Ju-	.	.	.	.	.	.	.	.
.	.	.	.	.	.	8B-\	-dex	.	.	.	.	.	.	.	.
*	*v	*v	*	*	*	*	*	*	*	*	*	*	*	*	*
=2	=2	=2	=2	=2	=2	=2	=2	=2	=2	=2	=2	=2	=2	=2
1r	1r	.	1r	.	8e-\	Er-	.	.	.	.	.	.	.	.
.	.	.	.	.	8B-\	-go	.	.	.	.	.	.	.	.
.	.	.	.	.	8G\	Cum	.	.	.	.	.	.	.	.
.	.	.	.	.	8B-\	Se-	.	.	.	.	.	.	.	.
.	.	.	.	.	8B-\	-de-	.	.	.	.	.	.	.	.
.	.	.	.	.	8E-\	-bit	.	.	.	.	.	.	.	.
.	.	.	.	.	4r	.	.	.	.	.	.	.	.	.
=3	=3	=3	=3	=3	=3	=3	=3	=3	=3	=3	=3	=3	=3	=3
8BB-/L	8f/L	.	8a-/L	.	2r	.	.	.	.	.	.	.	.	.
8BB-/	8d/	.	8a-/	.	.	.	.	.	.	.	.	.	.	.
8BB-/	8d/	.	8a-/	.	.	.	.	.	.	.	.	.	.	.
8BB-/J	8d/J	.	8a-/J	.	.	.	.	.	.	.	.	.	.	.
4BB-/	4d/	.	4a-/	.	4r	.	.	.	.	.	.	.	.	.
4r	4r	.	4r	.	8r	.	.	.	.	.	.	.	.	.
!	!	!	!	!	!LO:SIC:v:s=16A-\	!	!	!	!	!	!	!	!	!
.	.	.	.	.	16A\	quid	.	.	.	.	.	.	.	.
.	.	.	.	.	16F\	qui	.	.	.	.	.	.	.	.
!	!	!	!	!	!LO:LB:g=original	!	!	!	!	!	!	!	!	!
=4	=4	=4	=4	=4	=4	=4	=4	=4	=4	=4	=4	=4	=4	=4
!	!	!	!LO:TX:a:t=1	!	!	!	!	!	!	!	!	!	!	!
1r	1r	.	1r	.	8D/	ta-	.	.	.	.	.	.	.	.
.	.	.	.	.	8BB-/	-tet	.	.	.	.	.	.	.	.
.	.	.	.	.	8r	.	.	.	.	.	.	.	.	.
.	.	.	.	.	16BB-/	a	.	.	.	.	.	.	.	.
!	!	!	!	!	!LO:SIC:v:s=16A-\	!	!	!	!	!	!	!	!	!
.	.	.	.	.	16A\	Pa-	.	.	.	.	.	.	.	.
.	.	.	.	.	8G\	-re-	.	.	.	.	.	.	.	.
.	.	.	.	.	8G\	-bit	.	.	.	.	.	.	.	.
.	.	.	.	.	4r	.	.	.	.	.	.	.	.	.
=5	=5	=5	=5	=5	=5	=5	=5	=5	=5	=5	=5	=5	=5	=5
8E-\L	8e-/L	.	8g/L	.	2r	.	0r	.	0r	.	0r	.	0r	0r
8E-\	8e-/	.	8g/	.	.	.	.	.	.	.	.	.	.	.
8E-\	8e-/	.	8g/	.	.	.	.	.	.	.	.	.	.	.
8E-\J	8e-/J	.	8g/J	.	.	.	.	.	.	.	.	.	.	.
!	!LO:LB:g=original	!	!	!	!	!	!	!	!	!	!	!	!	!
4E-\	4f/	.	4an/	.	4r	.	.	.	.	.	.	.	.	.
4r	4r	.	4r	.	8r	.	.	.	.	.	.	.	.	.
.	.	.	.	.	16An\	nil	.	.	.	.	.	.	.	.
.	.	.	.	.	16B-\	i-	.	.	.	.	.	.	.	.
!	!	!	!LO:LB:g=original	!	!	!	!	!	!	!	!	!	!	!
=6	=6	=6	=6	=6	=6	=6	=6	=6	=6	=6	=6	=6	=6	=6
2r	2r	.	2r	.	8c\	-nul-	.	.	.	.	.	.	.	.
.	.	.	.	.	8F\	-tum	.	.	.	.	.	.	.	.
.	.	.	.	.	16r	.	.	.	.	.	.	.	.	.
.	.	.	.	.	16F\LL	Re-	.	.	.	.	.	.	.	.
.	.	.	.	.	16e-\JJ	.	.	.	.	.	.	.	.	.
.	.	.	.	.	16c\	-ma-	.	.	.	.	.	.	.	.
4r	4r	.	4r	.	16d\	-ne-	.	.	.	.	.	.	.	.
.	.	.	.	.	16d\	-bit	.	.	.	.	.	.	.	.
.	.	.	.	.	8r	.	.	.	.	.	.	.	.	.
8r	8r	.	8r	.	4r	.	.	.	.	.	.	.	.	.
16r	16r	.	16r	.	.	.	.	.	.	.	.	.	.	.
16F\	16an/	.	16cc\	.	.	.	.	.	.	.	.	.	.	.
=7	=7	=7	=7	=7	=7	=7	=7	=7	=7	=7	=7	=7	=7	=7
!LO:TX:a:t=P:problem=mixed beam	!LO:TX:a:t=P:problem=mixed beam	!	!LO:TX:a:t=P:problem=mixed beam	!	!	!	!	!	!	!	!	!	!	!
16B-\LL	16b-\LL	.	16dd\LL	.	1r	.	1r	.	1r	.	1r	.	1r	1r
16BB-/JJ	16B-/JJ	.	16B-/JJ	.	.	.	.	.	.	.	.	.	.	.
8r	8r	.	8r	.	.	.	.	.	.	.	.	.	.	.
4r	4r	.	4r	.	.	.	.	.	.	.	.	.	.	.
2r	2r	.	2r	.	.	.	.	.	.	.	.	.	.	.
!LO:LB:g=original	!	!	!	!	!LO:LB:g=original	!	!	!	!	!	!	!	!	!
=8||	=8||	=8||	=8||	=8||	=8||	=8||	=8||	=8||	=8||	=8||	=8||	=8||	=8||	=8||
*>B	*>B	*>B	*>B	*>B	*>B	*>B	*>B	*>B	*>B	*>B	*>B	*>B	*>B	*>B
*	*	*	*	*	*k[b-e-a-]	*	*	*	*	*	*	*	*	*
*M4/4	*M4/4	*	*M4/4	*	*M4/4	*	*M4/4	*	*M4/4	*	*M4/4	*	*M4/4	*M4/4
*met(c)	*met(c)	*	*met(c)	*	*met(c)	*	*met(c)	*	*met(c)	*	*met(c)	*	*met(c)	*met(c)
!	!	!	!LO:TX:b:i:t=Quid Sum miser	!	!	!	!	!	!	!	!	!	!	!
!	!LO:TX:b:i:t=Quid Sum miser	!	!LO:TX:a:Bi:t=Adagio	!	!	!	!	!	!	!	!LO:TX:a:Bi:t=Adagio	!	!	!
8E-\	8g/	.	16b-\LL	.	8r	.	8r	.	8r	.	8r	.	8r	8r
.	.	.	16ee-\JJ	.	.	.	.	.	.	.	.	.	.	.
=9	=9	=9	=9	=9	=9	=9	=9	=9	=9	=9	=9	=9	=9	=9
*>C	*>C	*>C	*>C	*>C	*>C	*>C	*>C	*>C	*>C	*>C	*>C	*>C	*>C	*>C
!LO:TX:a:t=P:problem=mixed beam	!	!	!	!	!	!	!	!	!	!	!LO:TX:a:t=4	!	!	!
!LO:TX:t=[segno]:problem=znak segno na kresce taktowej	!LO:TX:t=[segno]:problem=znak segno na kresce taktowej	!	!LO:TX:t=[segno]:problem=znak segno na kresce taktowej	!	!LO:TX:t=[segno]:problem=znak segno na kresce taktowej	!	!LO:TX:t=[segno]:problem=znak segno na kresce taktowej	!	!LO:TX:t=[segno]:problem=znak segno na kresce taktowej	!	!LO:TX:t=[segno]:problem=znak segno na kresce taktowej	!	!LO:TX:t=[segno]:problem=znak segno na kresce taktowej	!LO:TX:t=[segno]:problem=znak segno na kresce taktowej
8B-\L	16g/LL	.	(16ee-\LL	.	00r	.	00r	.	00r	.	00r	.	8r	8r
.	16f/	.	16dd\)	.	.	.	.	.	.	.	.	.	.	.
8BB-/J	16a-/	.	(16ff\	.	.	.	.	.	.	.	.	.	16r	16r
.	16f/JJ	.	16a-\JJ)	.	.	.	.	.	.	.	.	.	16ff\	16aa-\
8E-\	16f/LL	.	(16a-/LL	.	.	.	.	.	.	.	.	.	16ff\LL	16aa-\LL
.	16e-/J	.	16g/)	.	.	.	.	.	.	.	.	.	16ee-\JJ	16gg\JJ
8r	8g/J	.	(16b-/	.	.	.	.	.	.	.	.	.	8r	8r
.	.	.	16ee-/JJ)	.	.	.	.	.	.	.	.	.	.	.
!LO:TX:a:t=P:problem=mixed beam	!LO:LB:g=original	!	!LO:TX:a:t=P:problem=mixed beam	!	!	!	!	!	!	!	!	!	!	!
8B-\L	16g/LL	.	(16ee-\LL	.	.	.	.	.	.	.	.	.	8r	16r
.	16f/	.	16dd\)	.	.	.	.	.	.	.	.	.	.	8r
8BB-/J	16a-/	.	(16ff\	.	.	.	.	.	.	.	.	.	16r	.
.	16f/JJ	.	16a-/JJ)	.	.	.	.	.	.	.	.	.	16ff\	16aa-\
8E-\	16f/LL	.	(16a-/LL	.	.	.	.	.	.	.	.	.	16ff\LL	16aa-\LL
.	16e-/J	.	16g/)	.	.	.	.	.	.	.	.	.	16ee-\JJ	16gg\JJ
8r	8g/J	.	(16b-/	.	.	.	.	.	.	.	.	.	8r	8r
.	.	.	16ee-/JJ)	.	.	.	.	.	.	.	.	.	.	.
!	!	!	!LO:LB:g=original	!	!	!	!	!	!	!	!	!	!LO:LB:g=original	!LO:LB:g=original
=10	=10	=10	=10	=10	=10	=10	=10	=10	=10	=10	=10	=10	=10	=10
8AA-/	8.a-/L	ff	8.cc\L	ff	.	.	.	.	.	.	.	.	4r	4r
8r	.	.	.	.	.	.	.	.	.	.	.	.	.	.
.	16g/Jk	.	16b-\Jk	.	.	.	.	.	.	.	.	.	.	.
8r	16.f/LL	.	16.a-/LL	.	.	.	.	.	.	.	.	.	8r	8r
.	32e-/K	.	32g/K	.	.	.	.	.	.	.	.	.	.	.
16r	16.d/	.	16.f/	.	.	.	.	.	.	.	.	.	16r	16r
16F\	.	.	.	.	.	.	.	.	.	.	.	.	16ee-\	16gg\
.	32c/JJk	.	32e-/JJk	.	.	.	.	.	.	.	.	.	.	.
!LO:TX:a:t=P:problem=mixed beam	!	!	!LO:TX:b:t=d.	!	!	!	!	!	!	!	!	!	!	!
8F\L	8c/L	.	8d/L	.	.	.	.	.	.	.	.	.	8ee-\L	8gg\L
8BB-/J	8B-/J	.	8B-/J	.	.	.	.	.	.	.	.	.	8b-\J	8ff\J
4r	4r	.	4r	.	.	.	.	.	.	.	.	.	16b-\LL	16ff\LL
.	.	.	.	.	.	.	.	.	.	.	.	.	16ee-\	16gg\
.	.	.	.	.	.	.	.	.	.	.	.	.	16ee-\	16gg\
.	.	.	.	.	.	.	.	.	.	.	.	.	16ff\JJ	16aa-\JJ
=11	=11	=11	=11	=11	=11	=11	=11	=11	=11	=11	=11	=11	=11	=11
4E-\	16.e-/LL	.	16.g/LL	.	.	.	.	.	.	.	.	.	16.ee-\LL	16.gg\LL
.	32f/K	.	32a-/K	.	.	.	.	.	.	.	.	.	32ff\K	32aa-\K
.	16.g/	.	16.b-/	.	.	.	.	.	.	.	.	.	16.gg\	16.bb-\
.	32a-/JJk	.	32cc/JJk	.	.	.	.	.	.	.	.	.	32aa-\JJk	32ccc\JJk
4E-\	8.g/L	.	8.b-\L	.	.	.	.	.	.	.	.	.	4gg\	4bb-\
.	16g/Jk	.	16ee-\Jk	.	.	.	.	.	.	.	.	.	.	.
4BB-/	16.f/LL	.	16.dd\LL	.	.	.	.	.	.	.	.	.	8r	8r
.	32g/K	.	32ee-\K	.	.	.	.	.	.	.	.	.	.	.
.	16.a-/	.	16.ff\	.	.	.	.	.	.	.	.	.	16r	16r
.	.	.	.	.	.	.	.	.	.	.	.	.	16ee-\	16aa-\
.	32f/JJk	.	32a-\JJk	.	.	.	.	.	.	.	.	.	.	.
!LO:TX:a:t=P:problem=mixed beam	!	!	!	!	!	!	!	!	!	!	!	!	!	!
8B-\L	8f/L	.	8a-/L	.	.	.	.	.	.	.	.	.	8ee-\L	8gg\L
8BB-/J	8d/J	.	8f/J	.	.	.	.	.	.	.	.	.	8b-\J	8ff\J
!LO:LB:g=original	!LO:LB:g=original	!	!	!	!	!	!	!	!	!	!	!	!	!
=12	=12	=12	=12	=12	=12	=12	=12	=12	=12	=12	=12	=12	=12	=12
4E-\	16.e-/LL	.	16.g\LL	.	.	.	.	.	.	.	.	.	16.ee-\LL	16.gg\LL
.	32f/K	.	32a-\K	.	.	.	.	.	.	.	.	.	32ff\K	32aa-\K
.	16.g/	.	16.b-\	.	.	.	.	.	.	.	.	.	16.gg\	16.bb-\
.	32a-/JJk	.	32cc\JJk	.	.	.	.	.	.	.	.	.	32aa-\JJk	32ccc\JJk
4E-\	8.g/L	.	8.b-\L	.	.	.	.	.	.	.	.	.	4gg\	4bb-\
.	16g/Jk	.	16ee-\Jk	.	.	.	.	.	.	.	.	.	.	.
!	!	!	!LO:LB:g=original	!	!	!	!	!	!	!	!	!	!	!
4BB-/	16.f/LL	.	16.dd\LL	.	.	.	.	.	.	.	.	.	8r	8r
.	32g/K	.	32ee-\K	.	.	.	.	.	.	.	.	.	.	.
.	16.a-/	.	16.ff\	.	.	.	.	.	.	.	.	.	16r	16r
!	!	!	!	!	!	!	!	!	!	!	!	!	!	!LO:LB:g=original
.	.	.	.	.	.	.	.	.	.	.	.	.	16ff\	16aa-\
.	32f/JJk	.	32a-\JJk	.	.	.	.	.	.	.	.	.	.	.
!	!	!	!	!	!	!	!	!	!	!	!	!	!LO:LB:g=original	!
!LO:TX:a:t=P:problem=mixed beam	!	!	!	!	!	!	!	!	!	!	!	!	!LO:TX:a:t=P:problem=mixed beam	!
8B-\L	8f/L	.	8a-/L	.	.	.	.	.	.	.	.	.	8ff\L	8gg\L
8BB-/J	8d/J	.	8f/J	.	.	.	.	.	.	.	.	.	8b-/J	8ff\J
=13	=13	=13	=13	=13	=13	=13	=13	=13	=13	=13	=13	=13	=13	=13
!LO:TX:a:t=P:problem=mixed beam	!	!	!	!	!	!	!	!	!	!	!	!	!	!
8E-\L	8e-/L	.	16g/LL	.	0r	.	1r	.	0r	.	2r	.	16ee-\LL	16gg\LL
.	.	.	16e-/JJ	.	.	.	.	.	.	.	.	.	16gg\	16bb-\
!	!	!	!LO:TUP:b:problem=klamra łukowa	!	!	!	!	!	!	!	!	!	!	!
8A-\	8c/J	.	24c/LL	.	.	.	.	.	.	.	.	.	16aa-\	16ccc\
.	.	.	24a-/	.	.	.	.	.	.	.	.	.	.	.
.	.	.	.	.	.	.	.	.	.	.	.	.	16ff\JJ	16aa-\JJ
.	.	.	24f/JJ	.	.	.	.	.	.	.	.	.	.	.
!	!	!	!	!	!	!	!	!	!	!	!	!	!LO:TX:a:t=P:problem=mixed beam	!
8B-\	4G/	.	8e-/L	.	.	.	.	.	.	.	.	.	8ee-\L	8gg\L
8BB-/J	.	.	8d/J	.	.	.	.	.	.	.	.	.	8b-/J	8ff\J
8E-\L	8A-/L	.	4e-/	.	.	.	.	.	.	.	4r	.	4g/	4ee-\
8BB-\J	8G/J	.	.	.	.	.	.	.	.	.	.	.	.	.
4E-\	4r	.	4r	.	.	.	.	.	.	.	8r	.	4r	4r
.	.	.	.	.	.	.	.	.	.	.	16b-\	Quid	.	.
.	.	.	.	.	.	.	.	.	.	.	16dd\	Sum	.	.
=14	=14	=14	=14	=14	=14	=14	=14	=14	=14	=14	=14	=14	=14	=14
8r	8r	.	8r	.	.	.	2r	.	.	.	8ee-\	mi-	00r	00r
8E-\	8g/	.	8b-\	.	.	.	.	.	.	.	8b-\	-ser	.	.
!LO:TX:a:t=P:problem=mixed beam	!	!	!	!	!	!	!	!	!	!	!	!	!	!
8B-\L	8g/L	.	8.b-\L	.	.	.	.	.	.	.	8b-\	tunc	.	.
8BB-/J	8f/J	.	.	.	.	.	.	.	.	.	8a-\	dic-	.	.
.	.	.	16a-\Jk	.	.	.	.	.	.	.	.	.	.	.
!	!	!	!	!	!	!	!	!	!	!	!LO:LB:g=original	!	!	!
!LO:TX:a:t=P:problem=mixed beam	!	!	!	!	!	!	!	!	!	!	!LO:TUP:b:problem=klamra łukowa, kropka zamiast numeru	!	!	!
8E-\L	4e-/	.	4g\	.	.	.	4r	.	.	.	24g/LL	-tu-	.	.
.	.	.	.	.	.	.	.	.	.	.	24f/	.	.	.
.	.	.	.	.	.	.	.	.	.	.	24e-/JJ	.	.	.
8EE-/J	.	.	.	.	.	.	.	.	.	.	8e-/	-rus	.	.
4r	4r	.	4r	.	.	.	8r	.	.	.	4r	.	.	.
.	.	.	.	.	.	.	16B-\	Quid	.	.	.	.	.	.
.	.	.	.	.	.	.	16d\	Sum	.	.	.	.	.	.
=15	=15	=15	=15	=15	=15	=15	=15	=15	=15	=15	=15	=15	=15	=15
!	!	!	!	!	!	!	!	!	!	!	!LO:TX:a:t=1	!	!	!
8r	8r	.	8r	.	2r	.	8e-\	mi-	2r	.	1r	.	.	.
8E-\	8gg\	.	8bb-\	.	.	.	8B-\	-ser	.	.	.	.	.	.
!LO:TX:a:t=P:problem=mixed beam	!	!	!	!	!	!	!	!	!	!	!	!	!	!
8B-\L	8gg\L	.	8bb-\L	.	.	.	8B-\	tunc	.	.	.	.	.	.
8BB-/J	8ff\J	.	8aa-\J	.	.	.	8A-\	di-	.	.	.	.	.	.
*	*	*	*	*	*	*	*Xtuplet	*	*	*	*	*	*	*
!LO:TX:a:t=P:problem=mixed beam	!	!	!	!	!	!	!LO:LB:g=original	!	!	!	!	!	!	!
8E-\L	4ee-\	.	4gg\	.	4r	.	24G/LL	-ctu-	4r	.	.	.	.	.
.	.	.	.	.	.	.	24F/	.	.	.	.	.	.	.
.	.	.	.	.	.	.	24E-/JJ	.	.	.	.	.	.	.
8EE-/J	.	.	.	.	.	.	8E-/	-rus	.	.	.	.	.	.
4r	4r	.	4r	.	8r	.	4r	.	8r	.	.	.	.	.
.	.	.	.	.	16B-\	quid	.	.	16b-\	quem	.	.	.	.
.	.	.	.	.	16c\	Sum	.	.	16cc\	Pa-	.	.	.	.
!LO:LB:g=original	!LO:LB:g=original	!	!LO:LB:g=original	!	!	!	!	!	!	!	!	!	!	!
=16	=16	=16	=16	=16	=16	=16	=16	=16	=16	=16	=16	=16	=16	=16
!	!	!	!	!	!	!	!LO:TX:a:t=1	!	!	!	!	!	!	!
4A-\	4r	.	4r	.	8.c\	mi-	1r	.	8.cc\	-tro-	2r	.	.	.
.	.	.	.	.	16B-\	-ser	.	.	16b-\	-num	.	.	.	.
8r	8r	.	8r	.	16A-\LL	tunc	.	.	(16a-\LL	Ro-	.	.	.	.
.	.	.	.	.	16G\JJ	.	.	.	16g\JJ)	.	.	.	.	.
16r	16r	.	16r	.	16F\LL	dic-	.	.	(16f\LL	-ga-	.	.	.	.
16E-\	16ee-\	.	16gg\	.	16E-\JJ	.	.	.	16e-\JJ)	.	.	.	.	.
!LO:TX:a:t=P:problem=mixed beam	!	!	!	!	!	!	!	!	!LO:LB:g=original	!	!	!	!	!
8B-\L	8ee-\L	.	8gg\L	.	8D\	-tu-	.	.	8d\	-tu-	4r	.	.	.
8BB-/J	8dd\J	.	8ff\J	.	8D\	-rus	.	.	8d\	-rus	.	.	.	.
4r	4r	.	4r	.	4r	.	.	.	4r	.	8.f\	quem	.	.
.	.	.	.	.	.	.	.	.	.	.	16b-\	Pa-	.	.
!	!	!	!	!	!LO:LB:g=original	!	!	!	!	!	!	!	!	!
=17	=17	=17	=17	=17	=17	=17	=17	=17	=17	=17	=17	=17	=17	=17
8E-\L	8g/L	.	8b-\L	.	1r	.	2r	.	1r	.	8g\	-tro-	.	.
8E-\	8g/	.	8b-\	.	.	.	.	.	.	.	8g\	-num	.	.
!	!	!	!	!	!	!	!	!	!	!	!LO:TUP:a:problem=klamra łukowa, kropka zamiast numeru	!	!	!
8E-\	8g/	.	8b-\	.	.	.	.	.	.	.	24g\LL	Ro-	.	.
.	.	.	.	.	.	.	.	.	.	.	24an\	.	.	.
.	.	.	.	.	.	.	.	.	.	.	24b-\JJ	.	.	.
8E-\J	8g/J	.	8cc\J	.	.	.	.	.	.	.	16cc\LL	-ga-	.	.
.	.	.	.	.	.	.	.	.	.	.	16b-\JJ	.	.	.
8F\L	8an/L	.	8cc\L	.	.	.	4r	.	.	.	8an\	-tu-	.	.
8F\	8a/	.	8cc\	.	.	.	.	.	.	.	8a\	-rus	.	.
8F\	8a/	.	8cc\	.	.	.	8r	.	.	.	4r	.	.	.
8F\J	8a/J	.	8dd\J	.	.	.	16An\	Cum	.	.	.	.	.	.
.	.	.	.	.	.	.	16d\	vix	.	.	.	.	.	.
=18	=18	=18	=18	=18	=18	=18	=18	=18	=18	=18	=18	=18	=18	=18
8G\L	8b-\L	.	8dd\L	.	2r	.	8B-\	Jus-	2r	.	2r	.	00r	00r
8G\	8b-\	.	8dd\	.	.	.	8B-\	-tus	.	.	.	.	.	.
8G\	8b-\	.	8dd\	.	.	.	24B-\LL	Sit	.	.	.	.	.	.
.	.	.	.	.	.	.	24c\	.	.	.	.	.	.	.
.	.	.	.	.	.	.	24d\JJ	.	.	.	.	.	.	.
8G\J	8b-\J	.	8ee-\J	.	.	.	16e-\LL	se-	.	.	.	.	.	.
.	.	.	.	.	.	.	16d\JJ	.	.	.	.	.	.	.
8An\L	8cc\L	.	8ff\L	.	4r	.	8c\	-cu-	4r	.	4r	.	.	.
8A\	8cc\	.	8ff\J	.	.	.	8c\	-rus	.	.	.	.	.	.
!	!	!	!	!	!	!	!	!	!	!	!LO:N:vis=8	!	!	!
8A\J	8cc\J	.	8ff\	.	8r	.	4r	.	8r	.	16r	.	.	.
!	!	!	!	!	!	!	!	!	!	!	!LO:N:vis=8	!	!	!
.	.	.	.	.	.	.	.	.	.	.	16r	.	.	.
16r	16r	.	16r	.	16r	.	.	.	16r	.	16r	.	.	.
16F\	16cc\	.	16ee-\	.	16c\	vix	.	.	16cc\	vix	16ee-\	vix	.	.
!	!	!	!	!	!	!	!	!	!	!	!LO:LB:g=original	!	!	!
=19	=19	=19	=19	=19	=19	=19	=19	=19	=19	=19	=19	=19	=19	=19
8BB-/L	8b-\L	.	8dd\L	.	8B-\	Jus-	00r	.	8b-\	tu-	8dd\	Jus-	.	.
!	!LO:SIC:v:s=8an\J	!	!	!	!	!	!	!	!	!	!	!	!	!
8FF/J	8a-\J	.	8cc\J	.	8A-\	-tus	.	.	8a-\	-rus	8cc\	-tus	.	.
4r	4r	.	4r	.	4r	.	.	.	4r	.	2r	.	.	.
2r	2r	.	2r	.	8.F\	quid	.	.	8.f\	quid	.	.	.	.
.	.	.	.	.	16F\	qui	.	.	16f\	quid	.	.	.	.
.	.	.	.	.	16An\	la-	.	.	16an\	lu-	4r	.	.	.
.	.	.	.	.	16F\	-tet	.	.	16f\	-cet	.	.	.	.
.	.	.	.	.	16c\	a	.	.	16cc\	A-	.	.	.	.
.	.	.	.	.	16An\	Pa-	.	.	16an\	-pa-	.	.	.	.
!LO:LB:g=original	!	!	!LO:LB:g=original	!	!	!	!	!	!	!	!	!	!	!
=20	=20	=20	=20	=20	=20	=20	=20	=20	=20	=20	=20	=20	=20	=20
4E-\	2r;	.	2r;	.	16G\	-re-	.	.	16g\	-re-	2r;	.	.	.
.	.	.	.	.	16F\	-bit	.	.	16f\	-bit	.	.	.	.
.	.	.	.	.	8r	.	.	.	8r	.	.	.	.	.
4E-\	.	.	.	.	4r	.	.	.	4r	.	.	.	.	.
!	!	!	!	!	!LO:LB:g=original	!	!	!	!LO:LB:g=original	!	!	!	!	!
4BB-/	16.b-\LL	.	16.dd\LL	.	16.B-\LL	quid	.	.	16.b-\LL	quid	16.dd\LL	quid	.	.
.	32cc\K	.	32ee-\K	.	32c\JJk	.	.	.	32cc\JJk	.	32ee-\JJk	.	.	.
.	16.dd\	.	16.ff\	.	16.d\LL	Sum	.	.	16.dd\LL	Sum	16.ff\LL	Sum	.	.
.	32ee-\JJk	.	32gg\JJk	.	32e-\JJk	.	.	.	32ee-\JJk	.	32gg\JJk	.	.	.
!LO:TX:a:t=P:problem=mixed beam	!	!	!	!	!	!	!	!	!	!	!	!	!	!
8B-\L	8.dd\L	.	8ff\L	.	8d\	mi-	.	.	8dd\	mi-	8ff\	mi-	.	.
8BB-/J	.	.	8bb-\J	.	8B-\	-ser	.	.	8b-\	-ser	8dd\	-ser	.	.
.	16dd\Jk	.	.	.	.	.	.	.	.	.	.	.	.	.
=21	=21	=21	=21	=21	=21	=21	=21	=21	=21	=21	=21	=21	=21	=21
4E-\	16.cc\LL	.	16.aan\LL	.	8r	.	.	.	8r	.	8r	.	.	.
.	32dd\K	.	32bb-\K	.	.	.	.	.	.	.	.	.	.	.
.	16.ee-\	.	16.ccc\	.	16r	.	.	.	16r	.	16r	.	.	.
.	.	.	.	.	16c\	dic-	.	.	16cc\	Dic-	16ee-\	dic-	.	.
.	32cc\JJk	.	32ee-\JJk	.	.	.	.	.	.	.	.	.	.	.
4E-\	8cc\L	.	8ee-\L	.	8c\	-tu-	.	.	8cc\	-tu-	8ee-\	-tu-	.	.
.	8an\J	.	8cc\J	.	8An\	-rus	.	.	8an\	-rus	8cc\	-rus	.	.
!	!	!	!	!LO:DY:rj	!	!	!	!	!	!	!	!	!	!
4BB-/	16.b-\LL	.	16.dd\LL	p	16.B-\LL	Cum	.	.	16.b-\LL	Cum	16.dd\LL	Cum	.	.
.	32cc\K	.	32ee-\K	.	32c\JJk	.	.	.	32cc\JJk	.	32ee-\JJk	.	.	.
.	16.dd\	.	16.ff\	.	16.d\LL	vix	.	.	16.dd\LL	vix	16.ff\LL	vix	.	.
.	32ee-\JJk	.	32gg\JJk	.	32e-\JJk	.	.	.	32ee-\JJk	.	32gg\JJk	.	.	.
!LO:TX:a:t=P:problem=mixed beam	!	!	!	!	!	!	!	!	!	!	!	!	!	!
8B-\L	8.dd\L	.	8.ff\L	.	8d\	Jus-	.	.	8dd\	Jus-	8ff\	Jus-	.	.
8BB-/J	.	.	.	.	8B-\	-tus	.	.	8b-\	-tus	8dd\	-tus	.	.
.	16dd\Jk	.	16bb-\Jk	.	.	.	.	.	.	.	.	.	.	.
!	!	!	!	!	!	!	!	!	!	!	!LO:PB:g=original	!	!	!
=22	=22	=22	=22	=22	=22	=22	=22	=22	=22	=22	=22	=22	=22	=22
4F\	16.cc\LL	.	16.aan\LL	.	8r	.	.	.	8r	.	8r	.	00r	00r
.	32dd\K	.	32bb-\K	.	.	.	.	.	.	.	.	.	.	.
.	16.ee-\	.	16.ccc\	.	16r	.	.	.	16r	.	16r	.	.	.
.	.	.	.	.	16d\	Se-	.	.	16dd\	Se-	16ee-\	Se-	.	.
.	32cc\JJk	.	32ee-\JJk	.	.	.	.	.	.	.	.	.	.	.
!LO:TX:a:t=P:problem=mixed beam	!	!	!	!	!	!	!	!	!	!	!	!	!	!
8F\L	8cc\L	.	8ee-\L	.	8c\	-cu-	.	.	8cc\	-cu-	8ee-\	-cu-	.	.
8FF/J	8an\J	.	8cc\J	.	8An\	-rus	.	.	8an\	-rus	8cc\	-rus	.	.
!LO:TX:a:t=P:problem=mixed beam	!	!	!	!	!LO:LB:g=original	!	!	!	!	!	!	!	!	!
8BB-\L	8b-/L	.	8dd\L	ff	8B-\	Sit	.	.	8b-\	Sit	8dd\	Sit	.	.
*	*Xtuplet	*	*Xtuplet	*	*	*	*	*	*	*	*	*	*	*
!	!	!	!	!	!LO:TUP:a:problem=klamra łukowa, kropka zamiast numeru	!	!	!	!LO:TUP:a:problem=klamra łukowa, kropka zamiast numeru	!	!LO:TUP:a:problem=klamra łukowa	!	!	!
8E-\	24g/L	.	24ee-\L	.	24G\LL	se-	.	.	24g\LL	se-	24ee-\LL	se-	.	.
.	24f/	.	24dd\	.	24F\	.	.	.	24f\	.	24dd\	.	.	.
.	24e-/JJ	.	24cc\JJ	.	24E-\JJ	.	.	.	24e-\JJ	.	24cc\JJ	.	.	.
8F\	8d/L	.	8b-\L	.	8D/L	.	.	.	8d\L	-cu-	8b-\L	-cu-	.	.
8FF/J	8c/J	.	8an\J	.	8C/J	-cu-	.	.	8c\J	.	8an\J	.	.	.
!	!LO:LB:g=original	!	!LO:LB:g=original	!	!	!	!LO:LB:g=original	!	!LO:LB:g=original	!	!	!	!	!
=23	=23	=23	=23	=23	=23	=23	=23	=23	=23	=23	=23	=23	=23	=23
8BB-/L	4d/	.	4b-\	.	4BB-/	-rus	2r	.	4B-/	-rus	4b-\	-rus	.	.
8FF/J	.	.	.	.	.	.	.	.	.	.	.	.	.	.
4BB-/	4r	.	4r	.	4r	.	.	.	4r	.	2r	.	.	.
4B-\	16.B-/LL	.	16.d/LL	.	16.D\LL	quid	16.B-\LL	quid	16.d\LL	quid	.	.	.	.
.	32c/K	.	32e-/K	.	32E-\JJk	.	32c\JJk	.	32e-\JJk	.	.	.	.	.
.	16.d/	.	16.f/	.	16.F\LL	Sum	16.d\LL	Sum	16.f\LL	Sum-	.	.	.	.
.	32e-/JJk	.	32g/JJk	.	32G\JJk	.	32e-\JJk	.	32g\JJk	.	.	.	.	.
4BB-/	8.d/L	.	8.f/L	.	8F\	mi-	8d\	mi-	8f\	-mi-	4r	.	.	.
.	.	.	.	.	8D\	-ser	8B-\	-ser	8d\	-ser	.	.	.	.
.	16d/Jk	.	16b-/Jk	.	.	.	.	.	.	.	.	.	.	.
=24	=24	=24	=24	=24	=24	=24	=24	=24	=24	=24	=24	=24	=24	=24
!	!	!	!	!	!	!	!	!	!	!	!LO:TX:a:t=8	!	!	!
4F\	16.c/LL	.	16.an/LL	.	8r	.	8r	.	8r	.	00r	.	.	.
.	32d/K	.	32b-/K	.	.	.	.	.	.	.	.	.	.	.
.	16.e-/	.	16.cc/	.	16r	.	16r	.	16r	.	.	.	.	.
.	.	.	.	.	16F\	se-	16c\	dic-	16e-\	dic-	.	.	.	.
.	32c/JJk	.	32e-/JJk	.	.	.	.	.	.	.	.	.	.	.
!LO:TX:a:t=P:problem=mixed beam	!	!	!	!	!	!	!LO:N:vis=16	!	!	!	!	!	!	!
8F\L	8.c/L	.	8e-/L	.	8E-\	-cu-	8c\	-tu-	8e-\	-tu-	.	.	.	.
8FF/J	.	.	8c/J	.	8C\	-rus	8An\	-rus	8c\	-rus	.	.	.	.
.	16An/Jk	.	.	.	.	.	.	.	.	.	.	.	.	.
!	!	!	!	!LO:DY:rj	!	!	!	!	!	!	!	!	!	!
4BB-/	16.B-/LL	.	16.d/LL	p	16.D\LL	Cum	16.B-\LL	Cum	16.d\LL	Cum	.	.	.	.
.	32c/K	.	32e-/K	.	32E-\JJk	.	32c\JJk	.	32e-\JJk	.	.	.	.	.
.	16.d/	.	16.f/	.	16.F\LL	vix	16.d\LL	vix	16.f\LL	vix	.	.	.	.
.	32e-/JJk	.	32g/JJk	.	32G\JJk	.	32e-\JJk	.	32g\JJk	.	.	.	.	.
4BB-/	8.e-/L	.	8.f/L	.	8F\	Jus-	8d\	Jus-	8f\	Jus-	.	.	.	.
.	.	.	.	.	8E-\	-tus	8B-\	-tus	8e-\	-tus	.	.	.	.
.	16d/Jk	.	16b-/Jk	.	.	.	.	.	.	.	.	.	.	.
!LO:LB:g=original	!	!	!	!	!LO:LB:g=original	!	!	!	!LO:LB:g=original	!	!	!	!	!
=25	=25	=25	=25	=25	=25	=25	=25	=25	=25	=25	=25	=25	=25	=25
4F\	16.c/LL	.	16.an/LL	.	8r	.	8r	.	8r	.	.	.	.	.
.	32d/K	.	32b-/K	.	.	.	.	.	.	.	.	.	.	.
.	16.e-/	.	16.cc/	.	16r	.	16r	.	16r	.	.	.	.	.
.	.	.	.	.	16E-\	se-	16c\	Se-	16e-\	Se-	.	.	.	.
.	32c/JJk	.	32e-/JJk	.	.	.	.	.	.	.	.	.	.	.
!LO:TX:a:t=P:problem=mixed beam	!	!	!	!	!	!	!	!	!	!	!	!	!	!
8F\L	8c/L	.	8e-/L	.	8E-\	-cu-	8c\	-cu-	8e-\	-cu-	.	.	.	.
8FF/J	8An/J	.	8c/J	.	8C\	-rus	8An\	-rus	8c\	-rus	.	.	.	.
!	!	!	!LO:LB:g=original	!	!	!	!	!	!	!	!	!	!	!
!LO:TX:a:t=P:problem=mixed beam	!LO:TX:a:t=P:problem=mixed beam	!	!LO:TX:a:t=P:problem=mixed beam	!	!	!	!	!	!	!	!	!	!	!
8BB-\L	16B-/LL	.	16d/LL	.	8B-\	sit	8d\	Sit	8b-\	sit	.	.	.	.
.	16dd\JJ	.	16ff\JJ	.	.	.	.	.	.	.	.	.	.	.
*	*	*	*tuplet	*	*Xtuplet	*	*	*	*Xtuplet	*	*	*	*	*
!	!	!	!LO:TUP:a:problem=klamra łukowa	!	!	!	!	!	!	!	!	!	!	!
8E-\	24ee-\LL	.	24gg\LL	ff	24G\LL	se-	24e-\LL	se-	24g\LL	se-	.	.	.	.
.	24dd\	.	24ff\	.	24F\	.	24d\	.	24f\	.	.	.	.	.
.	24cc\JJ	.	24ee-\JJ	.	24E-\JJ	.	24c\JJ	.	24e-\JJ	.	.	.	.	.
!	!LO:LB:g=original	!	!	!	!	!	!LO:LB:g=original	!	!	!	!	!	!	!
8F\	8b-\L	.	8dd\L	.	8D\L	.	8B-\L	.	8d\L	-cu-	.	.	.	.
8FF/J	8an\J	.	8cc\J	.	8C\J	-cu-	8An\J	-cu-	8c\J	.	.	.	.	.
=26	=26	=26	=26	=26	=26	=26	=26	=26	=26	=26	=26	=26	=26	=26
4BB-/	4b-\	.	4b-\	.	8D\	-rus	4B-\	-rus	8B-/	-rus	.	.	00r	00r
.	.	.	.	.	16BB-/	nil	.	.	16B-/	nil	.	.	.	.
.	.	.	.	.	16BB-/	i-	.	.	16B-/	i-	.	.	.	.
4r	4r	.	4r	.	16D/	-nul-	4r	.	16d/	-nul-	.	.	.	.
.	.	.	.	.	16BB-/	-tum	.	.	16B-/	-tum	.	.	.	.
.	.	.	.	.	16F\	Re-	.	.	16f\	re-	.	.	.	.
.	.	.	.	.	16D\	-ma-	.	.	16d\	-ma-	.	.	.	.
4r	4r	.	4r	.	16C/	-ne-	2r	.	16c\	-ne-	.	.	.	.
.	.	.	.	.	16BB-/	-bit	.	.	16B-\	-bit	.	.	.	.
.	.	.	.	.	8r	.	.	.	8r	.	.	.	.	.
8r	8r	.	8r	.	4r	.	.	.	4r	.	.	.	.	.
8BB-/	8dd\	.	16ff\LL	.	.	.	.	.	.	.	.	.	.	.
.	.	.	16bb-\JJ	.	.	.	.	.	.	.	.	.	.	.
!	!	!	!	!	!LO:LB:g=original	!	!	!	!	!	!	!	!	!
=27	=27	=27	=27	=27	=27	=27	=27	=27	=27	=27	=27	=27	=27	=27
!LO:TX:a:t=P:problem=mixed beam	!	!	!	!	!	!	!	!	!	!	!	!	!	!
8F\L	16dd\LL	.	(16bb-\LL	.	00r	.	00r	.	00r	.	.	.	.	.
!	!	!	!LO:SIC:v:s=16aan\	!	!	!	!	!	!	!	!	!	!	!
.	16cc\	.	16aa-\)	.	.	.	.	.	.	.	.	.	.	.
8FF/	16ee-\	.	(16ccc\	.	.	.	.	.	.	.	.	.	.	.
.	16cc\JJ	.	16ee-\JJ)	.	.	.	.	.	.	.	.	.	.	.
8BB-/J	16cc\LL	.	(16ee-\LL	.	.	.	.	.	.	.	.	.	.	.
.	16b-\J	.	16dd\)	.	.	.	.	.	.	.	.	.	.	.
8r	8dd\J	.	(16ff\	.	.	.	.	.	.	.	.	.	.	.
.	.	.	16bb-\JJ)	.	.	.	.	.	.	.	.	.	.	.
!LO:TX:a:t=P:problem=mixed beam	!	!	!	!	!	!	!	!	!	!	!	!	!	!
8F\L	16dd\LL	.	(16bb-\LL	.	.	.	.	.	.	.	.	.	.	.
!	!	!	!LO:SIC:v:s=16aan\)	!	!	!	!	!	!	!	!	!	!	!
.	16cc\	.	16aa-\)	.	.	.	.	.	.	.	.	.	.	.
8FF/	16ee-\	.	(16ccc\	.	.	.	.	.	.	.	.	.	.	.
.	16cc\JJ	.	16ee-\JJ)	.	.	.	.	.	.	.	.	.	.	.
8BB-/J	16cc\LL	.	(16ee-\LL	.	.	.	.	.	.	.	.	.	.	.
.	16b-\J	.	16dd\)	.	.	.	.	.	.	.	.	.	.	.
8r	8dd\J	.	(16ff\	.	.	.	.	.	.	.	.	.	.	.
.	.	.	16bb-\JJ)	.	.	.	.	.	.	.	.	.	.	.
=28	=28	=28	=28	=28	=28	=28	=28	=28	=28	=28	=28	=28	=28	=28
!	!LO:TX:a:t=d	!	!	!	!	!	!	!	!	!	!	!	!	!
8E-\	8.dd\L	.	8.bb-\L	.	.	.	.	.	.	.	00r	.	.	.
8r	.	.	.	.	.	.	.	.	.	.	.	.	.	.
.	16dd\Jk	.	16ff\Jk	.	.	.	.	.	.	.	.	.	.	.
!	!	!	!LO:LB:g=original	!	!	!	!	!	!	!	!	!	!	!
8r	16cc\LL	.	16.ee-\LL	.	.	.	.	.	.	.	.	.	.	.
.	16b-\	.	.	.	.	.	.	.	.	.	.	.	.	.
.	.	.	32dd\K	.	.	.	.	.	.	.	.	.	.	.
!	!LO:SIC:v:s=16an\	!	!	!	!	!	!	!	!	!	!	!	!	!
16r	16a-\	.	16.cc\	.	.	.	.	.	.	.	.	.	.	.
16C/	16g\JJ	.	.	.	.	.	.	.	.	.	.	.	.	.
.	.	.	32b-\JJk	.	.	.	.	.	.	.	.	.	.	.
8C/L	8g/L	.	8b-\L	.	.	.	.	.	.	.	.	.	.	.
!	!	!	!LO:SIC:v:s=8an\J	!	!	!	!	!	!	!	!	!	!	!
8FF/J	8f/J	.	8a-\J	.	.	.	.	.	.	.	.	.	.	.
4r	4r	.	4r	.	.	.	.	.	.	.	.	.	.	.
!LO:LB:g=original	!LO:LB:g=original	!	!	!	!	!	!	!	!	!	!	!	!	!
=29	=29	=29	=29	=29	=29	=29	=29	=29	=29	=29	=29	=29	=29	=29
!	!	!LO:DY:rj	!	!	!	!	!	!	!	!	!	!	!	!
4BB-/	16.b-\LL	ff	16.dd\LL	.	.	.	.	.	.	.	.	.	.	.
.	32cc\K	.	32ee-\K	.	.	.	.	.	.	.	.	.	.	.
.	16.dd\	.	16.ff\	.	.	.	.	.	.	.	.	.	.	.
.	32ee-\JJk	.	32gg\JJk	.	.	.	.	.	.	.	.	.	.	.
4BB-/	8.dd\L	.	8ff\L	.	.	.	.	.	.	.	.	.	.	.
.	.	.	8bb-\J	.	.	.	.	.	.	.	.	.	.	.
.	16dd\Jk	.	.	.	.	.	.	.	.	.	.	.	.	.
4F\	16.cc\LL	.	16.aan\LL	.	.	.	.	.	.	.	.	.	.	.
.	32dd\K	.	32bb-\K	.	.	.	.	.	.	.	.	.	.	.
.	16.ee-\	.	16.ccc\	.	.	.	.	.	.	.	.	.	.	.
.	32ff\JJk	.	32ee-\JJk	.	.	.	.	.	.	.	.	.	.	.
!LO:TX:a:t=P:problem=mixed beam	!	!	!	!	!	!	!	!	!	!	!	!	!	!
8F\L	8cc\L	.	8ee-\L	.	.	.	.	.	.	.	.	.	.	.
8FF/J	8an\J	.	8cc\J	.	.	.	.	.	.	.	.	.	.	.
=30	=30	=30	=30	=30	=30	=30	=30	=30	=30	=30	=30	=30	=30	=30
!	!	!LO:DY:rj	!	!	!	!	!	!	!	!	!	!	!	!
4BB-/	16.b-\LL	p	16.dd\LL	.	.	.	.	.	.	.	.	.	1r	1r
.	32cc\K	.	32ee-\K	.	.	.	.	.	.	.	.	.	.	.
.	16.dd\	.	16.ff\	.	.	.	.	.	.	.	.	.	.	.
.	32ee-\JJk	.	32gg\JJk	.	.	.	.	.	.	.	.	.	.	.
4BB-/	8.dd\L	.	8ff\L	.	.	.	.	.	.	.	.	.	.	.
.	.	.	8bb-\J	.	.	.	.	.	.	.	.	.	.	.
.	16dd\Jk	.	.	.	.	.	.	.	.	.	.	.	.	.
4F\	16.cc\LL	.	16.aan\LL	.	.	.	.	.	.	.	.	.	.	.
.	32dd\K	.	32bb-\K	.	.	.	.	.	.	.	.	.	.	.
.	16.ee-\	.	16.ccc\	.	.	.	.	.	.	.	.	.	.	.
.	32ff\JJk	.	32ee-\JJk	.	.	.	.	.	.	.	.	.	.	.
!LO:TX:a:t=P:problem=mixed beam	!	!	!	!	!	!	!	!	!	!	!	!	!	!
8F\L	8cc\L	.	8ee-\L	.	.	.	.	.	.	.	.	.	.	.
8FF/J	8an\J	.	8cc\J	.	.	.	.	.	.	.	.	.	.	.
!	!	!	!LO:PB:g=original	!	!	!	!	!	!LO:LB:g=original	!	!	!	!	!
=31	=31	=31	=31	=31	=31	=31	=31	=31	=31	=31	=31	=31	=31	=31
!LO:TX:a:t=P:problem=mixed beam	!	!	!	!LO:DY:rj	!	!	!	!	!	!	!	!	!	!
8BB-\L	8b-/L	ff	16dd\LL	ff	2r	.	0r	.	2r	.	.	.	4r	4r
.	.	.	16b-\JJ	.	.	.	.	.	.	.	.	.	.	.
!	!	!	!LO:TX:a:t=P:problem=mixed beam	!	!	!	!	!	!	!	!	!	!	!
!	!	!	!LO:TUP:a:problem=klamra łukowa	!	!	!	!	!	!	!	!	!	!	!
8E-\	8g/	.	24g/LL	.	.	.	.	.	.	.	.	.	.	.
.	.	.	24dd\	.	.	.	.	.	.	.	.	.	.	.
.	.	.	24cc\JJ	.	.	.	.	.	.	.	.	.	.	.
8F\	8g/	.	8b-\L	.	.	.	.	.	.	.	.	.	8ff\L	8.bb-\L
8FF/J	8g/J	.	8an\J	.	.	.	.	.	.	.	.	.	8ff\J	.
.	.	.	.	.	.	.	.	.	.	.	.	.	.	16aaX\Jk
4BB-/	4g/	.	4b-\	.	4r	.	.	.	4r	.	.	.	4b-/	4bb-\
4r	4r	.	4r	.	8r	.	.	.	8r	.	.	.	4r	4r
.	.	.	.	.	16B-\	Rex	.	.	16b-\	Rex	.	.	.	.
.	.	.	.	.	16d\	tre-	.	.	16dd\	tre-	.	.	.	.
!	!LO:LB:g=original	!	!	!	!	!	!	!	!	!	!	!	!	!
=32	=32	=32	=32	=32	=32	=32	=32	=32	=32	=32	=32	=32	=32	=32
8r	8r	.	8r	.	8.e-\	-men-	.	.	8.ee-\	-men-	2r	.	00r	00r
8E-\	8gg\	.	8bb-\	.	.	.	.	.	.	.	.	.	.	.
.	.	.	.	.	16B-\	-de	.	.	16b-\	-de	.	.	.	.
!LO:TX:a:t=P:problem=mixed beam	!	!	!	!	!	!	!	!	!	!	!	!	!	!
8B-\L	8gg\L	.	8bb-\L	.	8.B-\	ma-	.	.	8.b-\	ma-	.	.	.	.
8BB-/J	8ff\J	.	8aa-X\J	.	.	.	.	.	.	.	.	.	.	.
.	.	.	.	.	16A-X\	-ies-	.	.	16a-X\	-ie-	.	.	.	.
*	*	*	*	*	*	*	*	*	*tuplet	*	*	*	*	*
!LO:TX:a:t=P:problem=mixed beam	!	!	!	!	!	!	!	!	!LO:TUP:a:problem=klamra łukowa, kropka zamiast numeru	!	!	!	!	!
8E-\L	4ee-\	.	4gg\	.	24G\LL	-ta-	.	.	24g\LL	-sta-	4r	.	.	.
.	.	.	.	.	24F\	.	.	.	24f\	.	.	.	.	.
.	.	.	.	.	24E-\JJ	.	.	.	24e-\JJ	.	.	.	.	.
8EE-/J	.	.	.	.	8E-\	-tis	.	.	8e-\	-tis	.	.	.	.
4r	4r	.	4r	.	4r	.	.	.	4r	.	8r	.	.	.
.	.	.	.	.	.	.	.	.	.	.	16b-\	qui	.	.
.	.	.	.	.	.	.	.	.	.	.	16cc\	Sal-	.	.
!	!	!	!	!	!	!	!	!	!	!	!LO:LB:g=original	!	!	!
=33	=33	=33	=33	=33	=33	=33	=33	=33	=33	=33	=33	=33	=33	=33
!	!	!	!	!	!	!	!	!	!LO:TX:a:t=1	!	!	!	!	!
8r	8r	p	8r	.	1r	.	2r	.	1r	.	8dd-X\	-van-	.	.
8E-\L	8b-\L	.	8dd-X\	.	.	.	.	.	.	.	8dd-\	-dos	.	.
*	*	*	*	*	*	*	*	*	*	*	*Xtuplet	*	*	*
8E-\	8b-\	.	8dd-\L	.	.	.	.	.	.	.	24dd-\LL	sal-	.	.
.	.	.	.	.	.	.	.	.	.	.	24cc\	.	.	.
.	.	.	.	.	.	.	.	.	.	.	24b-\JJ	.	.	.
!	!	!	!LO:TUP:a:problem=klamra łukowa	!	!	!	!	!	!	!	!	!	!	!
8G\J	8b-\J	.	24ff\L	.	.	.	.	.	.	.	24ff\LL	-vas	.	.
.	.	.	24ee-\	.	.	.	.	.	.	.	24ee-\	.	.	.
.	.	.	24dd-\JJ	.	.	.	.	.	.	.	24dd-\JJ	.	.	.
8G\L	8b-\L	.	8dd-\L	.	.	.	4r	.	.	.	8dd-\	gra-	.	.
8A-\J	8a-X\J	.	8cc\J	.	.	.	.	.	.	.	8cc\	-tis	.	.
4r	4r	.	4r	.	.	.	8r	.	.	.	4r	.	.	.
.	.	.	.	.	.	.	16c\	Sal-	.	.	.	.	.	.
.	.	.	.	.	.	.	16d\	-va	.	.	.	.	.	.
!LO:LB:g=original	!	!	!LO:LB:g=original	!	!	!	!	!	!	!	!	!	!	!
=34	=34	=34	=34	=34	=34	=34	=34	=34	=34	=34	=34	=34	=34	=34
!	!	!	!	!	!	!	!	!	!	!	!LO:TX:a:t=3	!	!	!
8r	8r	.	8r	.	2r	.	8e-\	inc	2r	.	0r	.	.	.
8F\L	8cc\L	.	8ee-\	.	.	.	8e-\	fons	.	.	.	.	.	.
8F\	8cc\	.	8ee-\L	.	.	.	24e-\LL	Pi-	.	.	.	.	.	.
.	.	.	.	.	.	.	24d\	.	.	.	.	.	.	.
.	.	.	.	.	.	.	24c\JJ	.	.	.	.	.	.	.
!	!	!	!LO:TUP:a:problem=klamra łukowa	!	!	!	!	!	!	!	!	!	!	!
8An\J	8cc\J	.	24gg\L	.	.	.	24g\LL	-e-	.	.	.	.	.	.
.	.	.	24ff\	.	.	.	24f\	.	.	.	.	.	.	.
.	.	.	24ee-\JJ	.	.	.	24e-\JJ	.	.	.	.	.	.	.
8A\L	8cc\L	.	8ee-\L	.	4r	.	8e-\	-ta-	4r	.	.	.	.	.
8B-\J	8b-\J	.	8ddn\J	.	.	.	8d\	-tis	.	.	.	.	.	.
4r	4r	.	4r	.	8r	.	4r	.	8r	.	.	.	.	.
.	.	.	.	.	16e-\	Li-	.	.	16ee-\	Li-	.	.	.	.
.	.	.	.	.	16B-\	-ber	.	.	16b-\	-ber	.	.	.	.
!	!	!	!	!	!LO:LB:g=original	!	!	!	!	!	!	!	!	!
=35	=35	=35	=35	=35	=35	=35	=35	=35	=35	=35	=35	=35	=35	=35
8r	8r	.	8r	.	8B-\	scrip-	00r	.	8b-\	scrip-	.	.	.	.
8BB-/	8ff\L	.	8aa-\	.	8A-\	-tus	.	.	8a-\	-tus	.	.	.	.
8BB-/L	8ff\	.	8aa-\L	.	8A-\	Pro-	.	.	8a-\	pro-	.	.	.	.
!	!	!	!	!	!	!	!	!	!LO:LB:g=original	!	!	!	!	!
8E-/J	8ee-\J	.	8gg\J	.	8G\	-fe-	.	.	8g\	-fe-	.	.	.	.
8BB-/L	16dd\LL	.	16ff\LL	.	16F\LL	-re-	.	.	16f\LL	-re-	.	.	.	.
.	16ff\J	.	16aa-\J	.	16A-\JJ	.	.	.	16a-\JJ	.	.	.	.	.
8E-/J	8ee-\J	.	8gg\J	.	8G\	-tur	.	.	8g\	-tur	.	.	.	.
4r	4r	.	4r	.	8r	.	.	.	8r	.	.	.	.	.
.	.	.	.	.	16G\	in	.	.	16g\	in	.	.	.	.
.	.	.	.	.	16G\	quo	.	.	16g\	quo	.	.	.	.
=36	=36	=36	=36	=36	=36	=36	=36	=36	=36	=36	=36	=36	=36	=36
!	!	!	!LO:TX:a:t=1	!	!	!	!	!	!	!	!	!	!	!
8AA-/L	1r	.	1r	.	16F\LL	to-	.	.	16f\LL	to-	1r	.	00r	00r
.	.	.	.	.	16En\JJ	.	.	.	16en\JJ	.	.	.	.	.
8AA-/	.	.	.	.	16F\LL	-tum	.	.	16f\LL	-tum	.	.	.	.
.	.	.	.	.	16G\JJ	.	.	.	16g\JJ	.	.	.	.	.
8AA-/	.	.	.	.	16A-\LL	Con-	.	.	16a-\LL	Con-	.	.	.	.
.	.	.	.	.	16G\JJ	.	.	.	16g\JJ	.	.	.	.	.
8AA-/J	.	.	.	.	16A-\LL	-ti-	.	.	16a-\LL	-ti-	.	.	.	.
.	.	.	.	.	16B-\JJ	.	.	.	16b-\JJ	.	.	.	.	.
8AA-/L	.	.	.	.	4c\	-ne-	.	.	(4cc\	-ne-	.	.	.	.
8AA-/	.	.	.	.	.	.	.	.	.	.	.	.	.	.
8AAn/	.	.	.	.	4E\	.	.	.	4e\)	.	.	.	.	.
8AA/J	.	.	.	.	.	.	.	.	.	.	.	.	.	.
=37	=37	=37	=37	=37	=37	=37	=37	=37	=37	=37	=37	=37	=37	=37
8BB-/L	2r	.	2r	.	8E-\	.	.	.	8e-\	.	2r	.	.	.
8BB-/J	.	.	.	.	8D\	-tur	.	.	8d\	-tur	.	.	.	.
4r	.	.	.	.	4r	.	.	.	4r	.	.	.	.	.
!	!LO:LB:g=original	!	!	!LO:DY:rj	!LO:LB:g=original	!	!	!	!	!	!	!	!	!
4E-\	16.e-/LL	.	16.b-\LL	ff	16.E-\LL	quid	.	.	16.e-\LL	quid	16.g\LL	quid	.	.
.	32f/K	.	32cc\K	.	32F\JJk	.	.	.	32f\JJk	.	32a-\JJk	.	.	.
.	16.g/	.	16.dd\	.	16.G\LL	Sum	.	.	16.g\LL	Sum	16.b-\LL	Sum	.	.
.	32a-/JJk	.	32ee-\JJk	.	32A-\JJk	.	.	.	32a-\JJk	.	32cc\JJk	.	.	.
4E-\	8.g/L	.	8.b-\L	.	8.G\	mi-	.	.	8.g\	mi-	8.b-\	mi-	.	.
.	16g/Jk	.	16ee-\Jk	.	16G\	-ser	.	.	16g\	-ser	16ee-\	-ser	.	.
!	!	!	!	!	!	!	!	!	!LO:LB:g=original	!	!	!	!	!
=38	=38	=38	=38	=38	=38	=38	=38	=38	=38	=38	=38	=38	=38	=38
4BB-/	16.f/LL	.	16.dd\LL	.	16.F\LL	tunc	.	.	(16.f\LL	tunc	16.dd\LL	tunc	.	.
.	32g/K	.	32ee-\K	.	32G\K	.	.	.	32g\K	.	32ee-\K	.	.	.
.	16.a-/	.	16.ff\	.	16.A-\JJ	.	.	.	16a-\JJ)	.	16ff\JJ	.	.	.
.	.	.	.	.	.	.	.	.	16f\	dic-	16b-\	dic-	.	.
!	!	!	!	!	!LO:N:vis=16	!	!	!	!	!	!	!	!	!
.	32f/JJk	.	32a-\JJk	.	32F\	dic-	.	.	.	.	.	.	.	.
!LO:TX:a:t=P:problem=mixed beam	!	!	!LO:LB:g=original	!	!	!	!	!	!	!	!	!	!	!
8B-\L	8f/L	.	8a-/L	.	8F\	-tu-	.	.	8f\	-tu-	8a-\	-tu-	.	.
8BB-/J	8d/J	.	8f/J	.	8E-\	-rus	.	.	8e-\	-rus	8f\	-rus	.	.
!LO:LB:g=original	!	!	!	!	!	!	!	!	!	!	!LO:LB:g=original	!	!	!
4E-\	16.e-/LL	.	16.g/LL	p	16.E-\LL	quem	.	.	16.e-\LL	quem	16.g\LL	quem	.	.
.	32f/K	.	32a-/K	.	32F\JJk	.	.	.	32f\JJk	.	32a-\JJk	.	.	.
.	16.g/	.	16.b-/	.	16.G\LL	Pa-	.	.	16.g\LL	pa-	16.b-\LL	Pa-	.	.
.	32a-/JJk	.	32cc/JJk	.	32A-\JJk	.	.	.	32a-\JJk	.	32cc\JJk	.	.	.
4E-\	8.g/L	.	8.b-\L	.	8.G\	-tro-	.	.	8.g\	-tro-	8.b-\	-tro-	.	.
.	16g/Jk	.	16ee-\Jk	.	16G\	-num	.	.	16g\	-n(um)	16ee-\	-num	.	.
=39	=39	=39	=39	=39	=39	=39	=39	=39	=39	=39	=39	=39	=39	=39
!	!	!	!LO:TX:a:t=P:problem=mixed beam	!	!	!	!	!	!	!	!	!	!	!
4BB-/	16.f/LL	.	16.dd\LL	.	16.F\LL	Ro-	0r	.	(16.f\LL	ro-	16.dd\LL	Ro-	.	.
.	32g/K	.	32ee-\K	.	32G\K	.	.	.	32g\K	.	32ee-\K	.	.	.
.	16.a-/	.	16.ff\	.	16.A-\JJ	.	.	.	16a-\JJ)	.	16ff\JJ	.	.	.
.	.	.	.	.	.	.	.	.	16f\	-ga-	16a-\	-ga-	.	.
!	!	!	!	!	!LO:N:vis=16	!	!	!	!	!	!	!	!	!
.	32f/JJk	.	32a-/JJk	.	32F\	-ga-	.	.	.	.	.	.	.	.
!LO:TX:a:t=P:problem=mixed beam	!	!	!	!	!LO:LB:g=original	!	!	!	!	!	!	!	!	!
8B-\L	8f/L	.	8a-/L	.	8F\	-tu-	.	.	8f\	-tu-	8a-\	-tu-	.	.
8BB-/J	8d/J	.	8f/J	.	8E-\	-rus	.	.	8e-\	-rus	8f\	-rus	.	.
4E-\	8e-/L	.	8g/L	.	2r	.	.	.	2r	.	8g\	Cum	.	.
.	8g/J	.	8b-/J	.	.	.	.	.	.	.	8b-\	vix	.	.
4A-\	16a-\LL	.	16cc\LL	.	.	.	.	.	.	.	16cc\	Jus-	.	.
.	16a-\	.	16cc\JJ	.	.	.	.	.	.	.	16cc\	-tus	.	.
*	*tuplet	*	*	*	*	*	*	*	*	*	*tuplet	*	*	*
!	!LO:TUP:a:problem=klamra łukowa	!	!LO:TUP:a:problem=klamra łukowa	!	!	!	!	!	!	!	!LO:TUP:a:problem=klamra łukowa	!	!	!
.	24cc\	.	24aa-\LL	ff	.	.	.	.	.	.	24aa-\	Sit	.	.
.	24b-\	.	24gg\	.	.	.	.	.	.	.	24gg\LL	Se-	.	.
.	24a-\JJ	.	24ff\JJ	.	.	.	.	.	.	.	24ff\JJ	.	.	.
=40	=40	=40	=40	=40	=40	=40	=40	=40	=40	=40	=40	=40	=40	=40
4B-\	8.f/L	.	4ee-\	.	2r	.	.	.	2r	.	4ee-\	-cu-	00r	00r
.	16f/Jk	.	.	.	.	.	.	.	.	.	.	.	.	.
!	!LO:LB:g=original	!	!	!	!	!	!	!	!	!	!	!	!	!
4BB-/	4f/	.	4dd\	.	.	.	.	.	.	.	4dd\	.	.	.
4E-\	4g/	.	4ee-\	.	8r	.	.	.	8r	.	4ee-\	-rus	.	.
.	.	.	.	.	16E-\	quid	.	.	16e-\	quid	.	.	.	.
.	.	.	.	.	16E-\	qui	.	.	16e-\	quid	.	.	.	.
4r	4r	.	4r	.	16G\	la-	.	.	16g\	la-	4r	.	.	.
.	.	.	.	.	16E-\	-tet	.	.	16e-\	-tet	.	.	.	.
!	!	!	!	!	!	!	!	!	!LO:LB:g=original	!	!	!	!	!
.	.	.	.	.	16B-\	a	.	.	16b-\	a-	.	.	.	.
.	.	.	.	.	16G\	Pa-	.	.	16g\	-Pa-	.	.	.	.
!	!	!	!	!	!	!	!LO:LB:g=original	!	!	!	!	!	!	!
=41	=41	=41	=41	=41	=41	=41	=41	=41	=41	=41	=41	=41	=41	=41
!	!	!	!	!	!	!	!	!	!	!	!LO:TX:a:t=4	!	!	!
2r	2r	.	2r	.	16F\	-fre-	2r	.	16f\	-re-	00r	.	.	.
.	.	.	.	.	16F\	-bit	.	.	16f\	-bit	.	.	.	.
.	.	.	.	.	8r	.	.	.	8r	.	.	.	.	.
.	.	.	.	.	4r	.	.	.	4r	.	.	.	.	.
4E-\	16.e-/LL	.	16.g/LL	.	16.G\LL	quid	16.e-\LL	quid	16.g\LL	quid	.	.	.	.
.	32f/K	.	32a-/K	.	32A-\JJk	.	32f\JJk	.	32a-\JJk	.	.	.	.	.
.	16.g/	.	16.b-/	.	16.B-\LL	Sum	16.g\LL	Sum	16.b-\LL	Sum	.	.	.	.
.	32a-/JJk	.	32cc/JJk	.	32c\JJk	.	32a-\JJk	.	32cc\JJk	.	.	.	.	.
!	!	!	!LO:LB:g=original	!	!	!	!	!	!	!	!	!	!	!
4E-\	8.g/L	.	8.b-\L	.	8.B-\	mi-	8.g\	mi-	8.b-\	mi-	.	.	.	.
.	16g/Jk	.	16ee-\Jk	.	16G\	-ser	16e-\	-ser	16g\	-ser	.	.	.	.
!	!	!	!	!	!LO:LB:g=original	!	!	!	!	!	!	!	!	!
=42	=42	=42	=42	=42	=42	=42	=42	=42	=42	=42	=42	=42	=42	=42
4BB-/	16.f/LL	.	16.dd\LL	.	16.F\LL	tunc	16.d\LL	tun	16.f\LL	tunc	.	.	.	.
.	32g/K	.	32ee-\K	.	32G\JJk	.	32e-\JJk	.	32g\JJk	.	.	.	.	.
.	16.a-/	.	16.ff\	.	16.A-\LL	dic-	16.f\LL	dic-	16.a-\LL	dic-	.	.	.	.
.	32f/JJk	.	32a-\JJk	.	32B-\JJk	.	32g\JJk	.	32b-\JJk	.	.	.	.	.
!LO:TX:a:t=P:problem=mixed beam	!	!	!	!	!	!	!	!	!	!	!	!	!	!
8B-\L	8.f/L	.	8a-/L	.	8A-\	-tu-	8f\	-tu-	8a-\	-tu-	.	.	.	.
8BB-/J	.	.	8f/J	.	8F\	-rus	8d\	-rus	8f\	-rus	.	.	.	.
.	16d/Jk	.	.	.	.	.	.	.	.	.	.	.	.	.
4E-\	16.e-/LL	.	16.g/LL	p	16.G\LL	quem	16.e-\LL	et	16.g\LL	quem	.	.	.	.
.	32f/K	.	32a-/K	.	32A-\JJk	.	32f\JJk	.	32a-\JJk	.	.	.	.	.
.	16.g/	.	16.b-/	.	16.B-\LL	Pa-	16.g\LL	Pa-	16.b-\LL	Pa-	.	.	.	.
.	32a-/JJk	.	32cc/JJk	.	32c\JJk	.	32a-\JJk	.	32cc\JJk	.	.	.	.	.
4E-\	8g/L	.	8.b-\L	.	8.B-\	-tro-	8.g\	-tro-	8.b-\	-tro-	.	.	.	.
.	8g/J	.	.	.	.	.	.	.	.	.	.	.	.	.
.	.	.	16ee-\Jk	.	16G\	-nam	16e-\	-nam	16g\	-nam	.	.	.	.
!	!	!	!	!	!	!	!	!	!LO:LB:g=original	!	!	!	!	!
=43	=43	=43	=43	=43	=43	=43	=43	=43	=43	=43	=43	=43	=43	=43
4BB-/	16.f/LL	.	16.dd\LL	.	16.F\LL	Ro-	16.d\LL	Ro-	16.f\LL	ro-	.	.	.	.
.	32g/K	.	32ee-\K	.	32G\K	.	32e-\JJk	.	32g\K	.	.	.	.	.
!	!	!	!	!	!	!	!LO:LB:g=original	!	!	!	!	!	!	!
.	16.a-/	.	16.ff\	.	16A-\JJ	.	16.f\LL	-ga-	16a-\JJ	.	.	.	.	.
.	.	.	.	.	16F\	-ga-	.	.	16f\	-ga-	.	.	.	.
.	32f/JJk	.	32a-\JJk	.	.	.	32A-\JJk	.	.	.	.	.	.	.
!LO:TX:a:t=P:problem=mixed beam	!	!	!	!	!	!	!	!	!	!	!	!	!	!
8B-\L	8f/L	.	8a-/L	.	8F\	-tu-	8A-/	-tu-	8f\	-tu-	.	.	.	.
8BB-/J	8d/J	.	8f/J	.	8E-\	-rus	8F/	-rus	8d\	-rus	.	.	.	.
4E-\	8e-/L	.	8.g/L	.	2r	.	8G/	Cum	2r	.	.	.	.	.
.	8g/J	.	.	.	.	.	8B-/	vix	.	.	.	.	.	.
.	.	.	16b-/Jk	.	.	.	.	.	.	.	.	.	.	.
4A-\	16a-\LL	.	16cc\LL	.	.	.	16c\	Jus-	.	.	.	.	.	.
.	16a-\	.	16cc\JJ	.	.	.	16c\	-tus	.	.	.	.	.	.
!	!LO:TUP:a:problem=klamra łukowa	!	!LO:TUP:a:problem=klamra łukowa	!	!	!	!	!	!	!	!	!	!	!
.	24cc\	.	24aa-\LL	.	.	.	24a-\	Sit	.	.	.	.	.	.
.	24b-\	.	24gg\	.	.	.	24g\LL	se-	.	.	.	.	.	.
.	24a-\JJ	.	24ff\JJ	.	.	.	24f\JJ	.	.	.	.	.	.	.
!	!LO:PB:g=original	!	!LO:LB:g=original	!	!	!	!	!	!	!	!	!	!	!
=44	=44	=44	=44	=44	=44	=44	=44	=44	=44	=44	=44	=44	=44	=44
4B-\	4g/	.	4ee-\	.	2r	.	(4e-\	-cu-	2r	.	.	.	0r	0r
4BB-/	4f/	.	4dd\	.	.	.	4d\)	.	.	.	.	.	.	.
4E-\	4g/	.	4ee-\	.	8r	.	4e-\	-rus	8r	.	.	.	.	.
.	.	.	.	.	16E-\	quid	.	.	16e-\	quid	.	.	.	.
.	.	.	.	.	16E-\	qui	.	.	16f\	quid	.	.	.	.
4r	4r	.	4r	.	16G\	ta-	4r	.	16g\	la-	.	.	.	.
.	.	.	.	.	16E-\	-tet	.	.	16e-\	-cet	.	.	.	.
.	.	.	.	.	16B-\	a	.	.	16b-\	a-	.	.	.	.
.	.	.	.	.	16G\	Pa-	.	.	16g\	-Pa-	.	.	.	.
!LO:LB:g=original	!	!	!	!	!LO:LB:g=original	!	!	!	!	!	!LO:LB:g=original	!	!	!
=45	=45	=45	=45;	=45	=45	=45	=45	=45	=45	=45	=45	=45	=45	=45
2r	2r	.	2r	.	16F\	-re-	2r	.	16f\	-re-	2r	.	.	.
.	.	.	.	.	16E-\	-bit	.	.	16e-\	-bit	.	.	.	.
.	.	.	.	.	8r	.	.	.	8r	.	.	.	.	.
.	.	.	.	.	4r	.	.	.	4r	.	.	.	.	.
4r	4r	.	4r	.	8E-\	mi-	8G/	mi-	8e-\	mi-	8b-\	mi-	.	.
.	.	.	.	.	8G\	-ser	8E-/	-ser	8g\	-ser	8ee-\	-ser	.	.
8r	8r	.	8r	.	4r	.	4r	.	4r	.	4r	.	.	.
!	!	!	!	!LO:DY:rj	!	!	!	!	!	!	!	!	!	!
8E-\	8g/	ff	16b-\LL	ff	.	.	.	.	.	.	.	.	.	.
.	.	.	16ee-\JJ	.	.	.	.	.	.	.	.	.	.	.
!	!	!	!	!	!	!	!	!	!LO:LB:g=original	!	!	!	!	!
=46	=46	=46	=46	=46	=46	=46	=46	=46	=46	=46	=46	=46	=46	=46
!LO:TX:a:t=P:problem=mixed beam	!	!	!	!	!	!	!	!	!	!	!LO:TX:a:t=4	!	!	!
8B-\L	(16g/LL	.	16ee-\LL	.	00r	.	00r	.	00r	.	00r	.	8r	8r
.	16f/)	.	16dd\	.	.	.	.	.	.	.	.	.	.	.
8BB-/J	(16a-/	.	16ff\	.	.	.	.	.	.	.	.	.	16r	16r
!	!	!	!	!	!	!	!	!	!	!	!	!	!	!LO:LB:g=original
.	16f/JJ)	.	16a-\JJ	.	.	.	.	.	.	.	.	.	16ff\	16aa-\
!	!	!	!	!	!	!	!	!	!	!	!	!	!LO:LB:g=original	!
8E-\	16f/LL	.	16a-\LL	.	.	.	.	.	.	.	.	.	16ff\L	16aa-\LL
.	16e-/J	.	16g\	.	.	.	.	.	.	.	.	.	16ee-\J	16gg\JJ
8r	8g/J	.	16b-\	.	.	.	.	.	.	.	.	.	8r	8r
.	.	.	16ee-\JJ	.	.	.	.	.	.	.	.	.	.	.
!LO:TX:a:t=P:problem=mixed beam	!	!	!	!	!	!	!	!	!	!	!	!	!	!
8B-\L	(16g/LL	.	16ee-\LL	.	.	.	.	.	.	.	.	.	8r	8r
.	16f/)	.	16dd\	.	.	.	.	.	.	.	.	.	.	.
8BB-/J	(16a-/	.	16ff\	.	.	.	.	.	.	.	.	.	16r	16r
.	16f/JJ)	.	16a-\JJ	.	.	.	.	.	.	.	.	.	16ff\	16aa-\
8E-\	16f/LL	.	16a-\LL	.	.	.	.	.	.	.	.	.	16ff\LL	16aa-\LL
.	16e-/J	.	16g\	.	.	.	.	.	.	.	.	.	16ee-\JJ	16gg\JJ
8r	8g/J	.	16b-\	.	.	.	.	.	.	.	.	.	8r	8r
.	.	.	16ee-\JJ	.	.	.	.	.	.	.	.	.	.	.
=47	=47	=47	=47	=47	=47	=47	=47	=47	=47	=47	=47	=47	=47	=47
8AA-/	8.a-/L	.	8.cc\L	.	.	.	.	.	.	.	.	.	4r	4r
8r	.	.	.	.	.	.	.	.	.	.	.	.	.	.
.	16g/Jk	.	16b-\Jk	.	.	.	.	.	.	.	.	.	.	.
8r	16.f/LL	.	16a-/LL	.	.	.	.	.	.	.	.	.	8r	8r
.	.	.	16g/	.	.	.	.	.	.	.	.	.	.	.
.	32e-/K	.	.	.	.	.	.	.	.	.	.	.	.	.
16r	16.d/	.	16f/	.	.	.	.	.	.	.	.	.	16r	16r
16F\	.	.	16e-/JJ	.	.	.	.	.	.	.	.	.	16ff\	16gg\
.	32c/JJk	.	.	.	.	.	.	.	.	.	.	.	.	.
!LO:TX:a:t=P:problem=mixed beam	!LO:LB:g=original	!	!LO:LB:g=original	!	!	!	!	!	!	!	!	!	!	!
8F\L	8c/L	.	8e-/L	.	.	.	.	.	.	.	.	.	8ee-\L	8gg\L
8BB-/J	8B-/J	.	8d/J	.	.	.	.	.	.	.	.	.	8b-\J	8ff\J
4r	4r	.	4r	.	.	.	.	.	.	.	.	.	16b-\LL	16ff\LL
.	.	.	.	.	.	.	.	.	.	.	.	.	16ee-\	16gg\
.	.	.	.	.	.	.	.	.	.	.	.	.	16ee-\	16gg\
.	.	.	.	.	.	.	.	.	.	.	.	.	16ff\JJ	16aa-\JJ
=48	=48	=48	=48	=48	=48	=48	=48	=48	=48	=48	=48	=48	=48	=48
4E-\	16.e-/LL	.	16.g/LL	.	.	.	.	.	.	.	.	.	16.ee-\LL	16.gg\LL
.	32f/K	.	32a-/K	.	.	.	.	.	.	.	.	.	32ff\K	32aa-\K
.	16.g/	.	16.b-/	.	.	.	.	.	.	.	.	.	16.gg\	16.bb-\
.	32a-/JJk	.	32cc/JJk	.	.	.	.	.	.	.	.	.	32aa-\JJk	32ccc\JJk
4E-\	8.g/L	.	8b-\L	.	.	.	.	.	.	.	.	.	4gg\	4bb-\
.	.	.	8ee-\J	.	.	.	.	.	.	.	.	.	.	.
.	16g/Jk	.	.	.	.	.	.	.	.	.	.	.	.	.
4BB-/	16.f/LL	.	16.dd\LL	.	.	.	.	.	.	.	.	.	8r	8r
.	32g/K	.	32ee-\K	.	.	.	.	.	.	.	.	.	.	.
.	16.a-/	.	16.ff\	.	.	.	.	.	.	.	.	.	16r	16r
!	!	!	!	!	!	!	!	!	!	!	!	!	!LO:LB:g=original	!
.	.	.	.	.	.	.	.	.	.	.	.	.	16ff\	16aa-\
.	32f/JJk	.	32a-\JJk	.	.	.	.	.	.	.	.	.	.	.
!LO:TX:a:t=P:problem=mixed beam	!	!	!	!	!	!	!	!	!	!	!	!	!LO:TX:a:t=P:problem=mixed beam	!
8B-\L	8f/L	.	8a-/L	.	.	.	.	.	.	.	.	.	8ff\L	8aa-\L
8BB-/J	8d/J	.	8f/J	.	.	.	.	.	.	.	.	.	8b-/J	8ff\J
!	!	!	!	!	!	!	!	!	!	!	!	!	!	!LO:LB:g=original
=49	=49	=49	=49	=49	=49	=49	=49	=49	=49	=49	=49	=49	=49	=49
4E-\	16.e-/LL	p	16.g/LL	.	.	.	.	.	.	.	.	.	16.ee-\LL	16.gg\LL
.	32f/K	.	32a-/K	.	.	.	.	.	.	.	.	.	32ff\K	32aa-\K
.	16.g/	.	16.b-/	.	.	.	.	.	.	.	.	.	16.gg\	16.bb-\
.	32a-/JJk	.	32cc/JJk	.	.	.	.	.	.	.	.	.	32aa-\JJk	32ccc\JJk
4E-\	8.g/L	.	8.b-\L	.	.	.	.	.	.	.	.	.	4gg\	4bb-\
.	16g/Jk	.	16ee-\Jk	.	.	.	.	.	.	.	.	.	.	.
!LO:LB:g=original	!	!	!	!	!	!	!	!	!	!	!	!	!	!
4BB-/	16.f/LL	.	16.dd\LL	.	.	.	.	.	.	.	.	.	8r	8r
.	32g/K	.	32ee-\K	.	.	.	.	.	.	.	.	.	.	.
.	16.a-/	.	16.ff\	.	.	.	.	.	.	.	.	.	16r	16r
.	.	.	.	.	.	.	.	.	.	.	.	.	16ff\	16aa-\
.	32f/JJk	.	32a-\JJk	.	.	.	.	.	.	.	.	.	.	.
!LO:TX:a:t=P:problem=mixed beam	!	!	!	!	!	!	!	!	!	!	!	!	!LO:TX:a:t=P:problem=mixed beam	!
8B-\L	8f/L	.	8a-/L	.	.	.	.	.	.	.	.	.	8ff\L	8aa-\L
8BB-/J	8d/J	.	8f/J	.	.	.	.	.	.	.	.	.	8b-/J	8ff\J
!	!LO:LB:g=original	!	!LO:LB:g=original	!	!	!	!	!	!	!	!	!	!	!
=50	=50	=50	=50	=50	=50;	=50	=50	=50	=50;;	=50	=50	=50	=50	=50
!LO:TX:a:t=P:problem=mixed beam	!	!	!	!	!	!	!	!	!	!	!	!	!	!
8E-\L	8e-/L	.	16g/LL	.	2r	.	1r	.	2r	.	2r	.	16.ee-\LL	16.gg\LL
.	.	.	16e-/JJ	.	.	.	.	.	.	.	.	.	.	.
.	.	.	.	.	.	.	.	.	.	.	.	.	32gg\K	32bb-\K
*	*	*	*Xtuplet	*	*	*	*	*	*	*	*	*	*	*
8A-\	8c/J	.	24c/LL	.	.	.	.	.	.	.	.	.	16.aa-\	16.ccc\
.	.	.	24a-/	.	.	.	.	.	.	.	.	.	.	.
.	.	.	24f/JJ	.	.	.	.	.	.	.	.	.	.	.
.	.	.	.	.	.	.	.	.	.	.	.	.	32ff\JJk	32aa-\JJk
!	!	!	!	!	!	!	!	!	!	!	!	!	!LO:TX:a:t=P:problem=mixed beam	!
8B-\	4G/	.	8e-/L	.	.	.	.	.	.	.	.	.	8ee-\L	8gg\L
8BB-/J	.	.	8d/J	.	.	.	.	.	.	.	.	.	8b-/J	8ff\J
4E-;\	4A-/	.	8e-;;/L	.	4r	.	.	.	4r	.	4r;	.	4g/	4ee-\
.	.	.	8r	.	.	.	.	.	.	.	.	.	.	.
*>D	*>D	*>D	*>D	*>D	*>D	*>D	*>D	*>D	*>D	*>D	*>D	*>D	*>D	*>D
4C\	4G/	.	8cc/J	.	4E-\	hu-	.	.	(4e-\	hi-	4cc\	hu-	4r	4r
.	.	.	8ryy	.	.	.	.	.	.	.	.	.	.	.
!	!	!	!	!	!	!	!LO:LB:g=original	!	!	!	!	!	!	!
=51	=51;;	=51	=51	=51	=51	=51	=51;;	=51	=51	=51	=51	=51	=51	=51;
4F\	8f/L	p	8dd\L	.	4F\	.	00r	.	4f\)	.	4dd\	.	00r	00r
.	8r	.	8r	.	.	.	.	.	.	.	.	.	.	.
4G\	8g/J	.	8bn\J	.	4G\	-ic	.	.	4g\	-ic	4bn\	-ic	.	.
.	8r	.	8r	.	.	.	.	.	.	.	.	.	.	.
4C\	8e-/L	.	8cc\L	.	4E-\	Er-	.	.	4e-\	er-	4cc\	Er-	.	.
.	8r	.	8r	.	.	.	.	.	.	.	.	.	.	.
4E-\	8g/J	.	8ee-\J	.	4G\	-go	.	.	4g\	-go	4ee-\	-go	.	.
.	8r	.	8r	.	.	.	.	.	.	.	.	.	.	.
=52	=52	=52	=52	=52	=52	=52	=52	=52	=52	=52	=52	=52	=52	=52
4A-\	8a-/L	.	8ff\L	.	(4A-\	Par-	.	.	(4a-\	Par-	4ff\	par-	.	.
.	8r	.	8r	.	.	.	.	.	.	.	.	.	.	.
4B-\	8b-/J	.	8dd\J	.	4B-\)	.	.	.	4b-\)	.	4dd\	.	.	.
.	8r	.	8r	.	.	.	.	.	.	.	.	.	.	.
!	!LO:TX:a:t=P:problem=mixed beam	!	!	!	!	!	!	!	!	!	!	!	!	!
4E-\	8f/L	.	4ee-\	.	4E-\	-ce	.	.	4e-\	-ce	4ee-\	-ce	.	.
.	8r	.	.	.	.	.	.	.	.	.	.	.	.	.
4r	8ee-\J	.	4r	.	4e-\	Par-	.	.	4ee-\	Par-	4r	.	.	.
.	8r	.	.	.	.	.	.	.	.	.	.	.	.	.
=53	=53	=53	=53	=53	=53	=53	=53	=53	=53	=53	=53	=53	=53	=53
2r	8dd\L	.	4r	.	4d\	.	.	.	4dd\	.	4r	.	.	.
.	8r	.	.	.	.	.	.	.	.	.	.	.	.	.
.	8cc\J	.	8aa-\L	.	4c\	-ce	.	.	4cc\	-ce	4aa-\	Par-	.	.
.	8r	.	8r	.	.	.	.	.	.	.	.	.	.	.
4r	8bn\L	.	8gg\	.	4Bn\	Par-	.	.	4bn\	Par-	4gg\	.	.	.
.	8r	.	8r	.	.	.	.	.	.	.	.	.	.	.
4G\	8b\J	.	8ff\J	.	4B\	-ce	.	.	4b\	-ce	4ff\	-ce	.	.
.	8r	.	8r	.	.	.	.	.	.	.	.	.	.	.
!	!LO:LB:g=original	!	!LO:LB:g=original	!	!LO:LB:g=original	!	!	!	!	!	!	!	!	!
=54	=54	=54	=54	=54	=54	=54	=54	=54	=54	=54	=54	=54	=54	=54
*	*	*	*	*	*	*	*	*	*	*	*2\right	*	*	*
4c\	8cc\L	.	8ee-\L	.	4c\	De-	.	.	4cc\	De-	2ee-\	De-	.	.
.	8r	.	8r	.	.	.	.	.	.	.	.	.	.	.
4F#X\	8an\J	.	8ee-\J	.	4An\	-us	.	.	4an\	-us	.	.	.	.
.	8r	.	8r	.	.	.	.	.	.	.	.	.	.	.
4G\	8g/L	.	8dd\	.	4G\	Pi-	.	.	4g\	Pi-	4dd\	-us	.	.
.	8r	.	8r	.	.	.	.	.	.	.	.	.	.	.
4r	8a-X/J	.	4r	.	4A-X\	-e	.	.	4a-X\	-e	4r	.	.	.
.	8r	.	.	.	.	.	.	.	.	.	.	.	.	.
!	!	!	!	!	!	!	!	!	!	!	!LO:LB:g=original	!	!	!
=55	=55	=55	=55	=55	=55	=55	=55	=55	=55	=55	=55	=55	=55	=55
2r	8g/L	.	4r	.	4G\	Ju-	00r	.	4g\	Je-	4r	.	00r	00r
.	8r	.	.	.	.	.	.	.	.	.	.	.	.	.
.	8f/J	.	8aa-\L	.	4F\	-su	.	.	4f\	-su	4aa-\	Do-	.	.
.	8r	.	8r	.	.	.	.	.	.	.	.	.	.	.
4r	8e-/L	.	8gg\	.	4E-\	Do-	.	.	4e-\	Do-	4gg\	.	.	.
.	8r	.	8r	.	.	.	.	.	.	.	.	.	.	.
4G\	8g/J	.	8bn\J	.	4G\	-mi-	.	.	4g\	-mi-	4bn\	-mi-	.	.
.	8r	.	8r	.	.	.	.	.	.	.	.	.	.	.
!LO:LB:g=original	!	!	!	!	!	!	!	!	!LO:LB:g=original	!	!	!	!	!
=56	=56	=56	=56	=56	=56	=56	=56	=56	=56	=56	=56	=56	=56	=56
4C/	4g/	.	8cc\L	.	4G\	-ne	.	.	4g\	-ne	4cc\	-ne	.	.
.	.	.	8r	.	.	.	.	.	.	.	.	.	.	.
4r	4r	.	8ee-\J	.	4r	.	.	.	4r	.	4ee-\	Do-	.	.
.	.	.	8r	.	.	.	.	.	.	.	.	.	.	.
4r	4r	.	8dd\L	.	4r	.	.	.	4r	.	(4dd\	-na	.	.
.	.	.	8r	.	.	.	.	.	.	.	.	.	.	.
8r	4f#X/	.	8cc\J	.	4F#X\	Do-	.	.	(4f#X\	Do-	4cc\)	.	.	.
8F#X\	.	.	8r	.	.	.	.	.	.	.	.	.	.	.
=57	=57	=57	=57	=57	=57	=57	=57	=57	=57	=57	=57	=57	=57	=57
4G\	8g/L	.	8bn\L	.	4G\	-na	.	.	4g\)	.	4bn\	do-	.	.
.	8r	.	8r	.	.	.	.	.	.	.	.	.	.	.
4An\	8an/J	.	8ff#X\J	.	4An\	E-	.	.	4an\	-na	4ff#X\	-na	.	.
.	8r	.	8r	.	.	.	.	.	.	.	.	.	.	.
4Bn\	8bn\L	.	8gg\L	.	4Bn\	.	.	.	4bn\	E-	4gg\	E-	.	.
.	8r	.	8r	.	.	.	.	.	.	.	.	.	.	.
4G\	8dd\J	.	8ffn\J	.	4d\	-is	.	.	4dd\	-is	4ffn\	-is	.	.
.	8r	.	8r	.	.	.	.	.	.	.	.	.	.	.
!	!LO:LB:g=original	!	!LO:LB:g=original	!	!	!	!	!	!	!	!	!	!	!
=58	=58	=58	=58	=58	=58	=58	=58	=58	=58	=58	=58	=58	=58	=58
4c\	8cc\L	.	8ee-\L	.	4c\	Re-	.	.	4cc\	Re-	4.ee-\	Re-	.	.
.	8r	.	8r	.	.	.	.	.	.	.	.	.	.	.
4F#X\	8cc\J	.	8ee-\J	.	4c\	-qui-	.	.	4cc\	-qui-	.	.	.	.
.	8r	.	8r	.	.	.	.	.	.	.	8ee-\	-qui-	.	.
!	!	!	!	!	!LO:LB:g=original	!	!	!	!	!	!	!	!	!
4G\	8bn\L	.	4dd\	.	4Bn\	-em	.	.	4bn\	-em	4dd\	-em	.	.
.	8r	.	.	.	.	.	.	.	.	.	.	.	.	.
4r	8a-X\J	.	4r	.	4A-X\	Do-	.	.	4a-X\	Do-	4r	.	.	.
.	8r	.	.	.	.	.	.	.	.	.	.	.	.	.
=59	=59	=59	=59	=59	=59	=59	=59	=59	=59	=59	=59	=59	=59	=59
2r	8g/L	.	4r	.	4G\	.	0r	.	4g\	.	4r	.	0r	1r
.	8r	.	.	.	.	.	.	.	.	.	.	.	.	.
.	8f/J	.	8aa-\L	.	4F\	-na	.	.	4f\	-na	4aa-\	re-	.	.
.	8r	.	8r	.	.	.	.	.	.	.	.	.	.	.
4r	8e-/L	.	8gg\	.	4E-\	Re-	.	.	4e-\	re-	4gg\	.	.	.
.	8r	.	8r	.	.	.	.	.	.	.	.	.	.	.
4G\	8g/J	.	8bn\J	.	4G\	-qui-	.	.	4g\	-qui-	4bn\	-qui-	.	.
.	8r	.	8r	.	.	.	.	.	.	.	.	.	.	.
=60	=60	=60	=60	=60	=60	=60	=60	=60	=60	=60	=60	=60	=60	=60
4C/	4c/	.	4cc\	.	4C/	-em	.	.	4c/	-em	4cc\	-em	.	2r
4r	4r	.	4r	.	4r	.	.	.	4r	.	2r	.	.	.
4r	4r	.	4r	.	2r	.	.	.	2r	.	.	.	.	4r
8r	8r	.	8r	.	.	.	.	.	.	.	4r	.	.	8r
!	!	!	!	!	!	!	!	!	!	!	!	!	!	!LO:N:vis=16
8E-\	8g/	.	16b-\LL	.	.	.	.	.	.	.	.	.	.	8r
!LO:TX:a:i:t=Da Capo\na Segn.	!LO:TX:a:i:t=Da Capo	!	!LO:TX:a:i:t=Da Capo a Segno	!	!LO:TX:a:i:t=Da Capo\npo a Segno	!	!LO:TX:a:i:t=Da Capo a Seg	!	!LO:TX:a:i:t=Da Capo\nVo a Segno	!	!LO:TX:a:i:t=Da\nCapo	!	!LO:TX:a:i:t=a Segno	!LO:TX:a:i:t=a Segno
.	.	.	16ee-\JJ	.	.	.	.	.	.	.	.	.	.	.
==	==	==	==	==	==	==	==	==	==	==	==	==	==	==
*-	*-	*-	*-	*-	*-	*-	*-	*-	*-	*-	*-	*-	*-	*-
!!!system-decoration: [(g1)][(g2)][(g3)]<s9>
!!!RDF**dynam: p = "pi"
!!!RDF**dynam: ff = "ffor"
!!!ENC: Berenika Jozajtis
!!!END: 2021-02-04
!!!ENC: Andrzej Kubiczek
!!!END: 2022-01-14
!!!YEC: Copyright 2022 Narodowy Instytut Fryderyka Chopina (https://polishscores.org)
!!!YEM: Licence CC BY 4.0 (https://creativecommons.org/licenses/by/4.0)
